public/images/logo.svg

<svg width="1558" height="260" viewBox="0 0 1558 260" fill="none" xmlns="http://www.w3.org/2000/svg">
<g clip-path="url(#clip0_0_3)">
<path d="M1288.5 112.905H1159.75V58.4404H1262L1270 0L1074 0V260H1159.75V162.997H1296.95L1288.5 112.905Z" fill="#0062FF"/>
<path d="M1058.62 58.4404V0H789V58.4404H881.133V260H966.885V58.4404H1058.62Z" fill="#0062FF"/>
<path d="M521 179.102V0L454.973 15V161C454.973 181.124 452.084 193.146 443.5 202C434.916 211.257 419.318 214.5 400.5 214.5C381.022 214.5 366.744 210.854 357.5 202C348.916 193.548 346.357 175.721 346.357 156V0L280 15V175.48C280 208.08 290.234 229.412 309.712 241.486C329.19 253.56 358.903 260 400.5 260C440.447 260 470.159 253.56 490.297 241.486C510.766 229.412 521 208.483 521 179.102Z" fill="#0062FF"/>
<path d="M172.84 84.2813C172.84 97.7982 168.249 107.737 158.41 113.303C149.883 118.471 137.092 121.254 120.693 122.049V162.997C129.876 163.792 138.076 166.177 144.307 176.514L184.647 260H265L225.316 180.489C213.181 155.046 201.374 149.48 178.744 143.517C212.197 138.349 241.386 118.471 241.386 73.1499C241.386 53.2722 233.843 30.2141 218.756 17.8899C203.998 5.56575 183.991 0 159.394 0H120.693V48.5015H127.58C142.23 48.5015 153.6 51.4169 161.689 57.2477C169.233 62.8135 172.84 71.5596 172.84 84.2813ZM120.693 122.049C119.163 122.049 117.741 122.049 116.43 122.049H68.5457V48.5015H120.693V0H0V260H70.5137V162.997H110.526C113.806 162.997 117.741 162.997 120.693 162.997V122.049Z" fill="#0062FF"/>
<path d="M774 179.297C774 160.829 766.671 144.669 752.013 131.972C738.127 119.66 712.025 110.169 673.708 103.5C662.136 101.191 651.722 99.6523 643.235 97.3437C586.532 84.6467 594.632 52.7118 650.564 52.7118C680.651 52.7118 709.582 61.946 738.127 66.9478C742.37 67.7174 743.913 68.1021 744.298 68.1021L750.47 12.697C720.383 3.46282 684.895 0 654.036 0C616.619 0 587.689 6.54088 567.245 19.2379C546.801 31.9349 536 57.7137 536 82.3382C536 103.5 543.715 119.66 559.916 131.972C575.731 143.515 604.276 152.749 645.55 160.059C658.279 162.368 668.694 163.907 676.794 166.215C685.023 168.524 691.066 170.704 694.924 172.756C702.253 176.604 706.11 182.375 706.11 188.531C706.11 196.611 701.481 202.767 692.224 207C664.836 220.081 587.689 212.001 556.83 198.15L543.715 247.784C547.186 248.169 552.972 249.323 559.916 250.477C616.619 259.327 690.681 270.869 741.212 238.935C762.814 225.468 774 206.23 774 179.297Z" fill="#0062FF"/>
<path d="M1558 179.568C1558 160.383 1550.42 144.268 1535.67 131.99C1521.32 119.968 1494.34 110.631 1454.74 103.981C1442.38 101.679 1432.01 99.3764 1422.84 97.8416C1422.44 97.8416 1422.04 97.8416 1422.04 97.4579V112.422L1361.04 75.2038L1422.04 38.3692V52.9496C1424.7 52.9496 1427.49 52.9496 1430.41 52.9496C1461.51 52.9496 1491.42 62.5419 1521.32 67.5299C1525.31 67.9136 1526.9 67.9136 1527.3 67.9136L1533.68 12.6619C1502.98 3.83692 1465.9 0 1434 0C1395.33 0 1365.43 6.52277 1345.09 19.5683C1323.16 32.6139 1312 57.9376 1312 82.8776C1312 103.981 1320.37 120.096 1336.72 131.607C1353.46 143.885 1382.97 153.093 1425.23 160.383C1434 161.535 1441.18 162.686 1447.56 164.22L1448.36 150.791L1507.36 190.312L1445.57 224.844L1445.96 212.949C1409.68 215.635 1357.45 209.112 1333.53 197.985L1320.37 247.482C1323.56 248.249 1329.54 248.633 1336.72 250.551C1395.33 259.376 1471.88 270.887 1524.11 238.657C1546.84 225.611 1558 205.659 1558 179.568Z" fill="#0062FF"/>
</g>
<defs>
<clipPath id="clip0_0_3">
<rect width="1558" height="260" fill="white"/>
</clipPath>
</defs>
</svg>

<svg xmlns="http://www.w3.org/2000/svg" fill="none" viewBox="0 0 1558 260" class="h-5 w-auto"><path fill="#0196D0" d="M1288.5 112.905h-128.75V58.44H1262L1270 0h-196v260h85.75v-97.003h137.2zM1058.62 58.44V0H789v58.44h92.133V260h85.752V58.44zM521 179.102V0l-66.027 15v146c0 20.124-2.889 32.146-11.473 41-8.584 9.257-24.182 12.5-43 12.5-19.478 0-33.756-3.646-43-12.5-8.584-8.452-11.143-26.279-11.143-46V0L280 15v160.48c0 32.6 10.234 53.932 29.712 66.006S358.903 260 400.5 260c39.947 0 69.659-6.44 89.797-18.514C510.766 229.412 521 208.483 521 179.102M172.84 84.281c0 13.517-4.591 23.456-14.43 29.022-8.527 5.168-21.318 7.951-37.717 8.746v40.948c9.183.795 17.383 3.18 23.614 13.517L184.647 260H265l-39.684-79.511c-12.135-25.443-23.942-31.009-46.572-36.972 33.453-5.168 62.642-25.046 62.642-70.367 0-19.878-7.543-42.936-22.63-55.26C203.998 5.566 183.991 0 159.394 0h-38.701v48.502h6.887q21.975 0 34.109 8.746c7.544 5.566 11.151 14.312 11.151 27.033m-52.147 37.768H68.546V48.501h52.147V0H0v260h70.514v-97.003h50.179zM774 179.297c0-18.468-7.329-34.628-21.987-47.325q-20.83-18.468-78.305-28.472c-11.572-2.309-21.986-3.848-30.473-6.156-56.703-12.697-48.603-44.632 7.329-44.632 30.087 0 59.018 9.234 87.563 14.236 4.243.77 5.786 1.154 6.171 1.154l6.172-55.405C720.383 3.463 684.895 0 654.036 0c-37.417 0-66.347 6.54-86.791 19.238C546.801 31.935 536 57.714 536 82.338c0 21.162 7.715 37.322 23.916 49.634 15.815 11.543 44.36 20.777 85.634 28.087 12.729 2.309 23.144 3.848 31.244 6.156q12.343 3.463 18.13 6.541c7.329 3.848 11.186 9.619 11.186 15.775q0 12.12-13.886 18.469c-27.388 13.081-104.535 5.001-135.394-8.85l-13.115 49.634c3.471.385 9.257 1.539 16.201 2.693 56.703 8.85 130.765 20.392 181.296-11.542C762.814 225.468 774 206.23 774 179.297M1558 179.568c0-19.185-7.58-35.3-22.33-47.578-14.35-12.022-41.33-21.359-80.93-28.009-12.36-2.302-22.73-4.605-31.9-6.14-.4 0-.8 0-.8-.383v14.964l-61-37.218 61-36.835v14.58h8.37c31.1 0 61.01 9.593 90.91 14.58 3.99.385 5.58.385 5.98.385l6.38-55.252C1502.98 3.837 1465.9 0 1434 0c-38.67 0-68.57 6.523-88.91 19.568-21.93 13.046-33.09 38.37-33.09 63.31 0 21.103 8.37 37.218 24.72 48.729 16.74 12.278 46.25 21.486 88.51 28.776 8.77 1.152 15.95 2.303 22.33 3.837l.8-13.429 59 39.521-61.79 34.532.39-11.895c-36.28 2.686-88.51-3.837-112.43-14.964l-13.16 49.497c3.19.767 9.17 1.151 16.35 3.069 58.61 8.825 135.16 20.336 187.39-11.894 22.73-13.046 33.89-32.998 33.89-59.089"></path></svg>
